X:1     %Music
T:The Boys of Kilkenny
B:Singing Together, Summer 1977, BBC Publications
F:http://www.folkinfo.org/songs
M:3/4     %Meter
L:1/8     %
K:C
EE |A2 A2 AB |c2 B2 A2 |AG E2 D2 | E4
w:Fare you well to old_ Ire-land since I must leave the shore.
EF |G2 G2 A2 |E2 D2 CC |D2 c2 B2 | A4
w:And per-haps ne-ver see that lit-tle is-land no more.
cd |e2 c2 e2 |(ed) e2 e2 |(ed) A2 A2 | (F2E2) 
w: Lea-ving bro-thers and sis--ters and mo--ther to mourn._
D2 |G2 G2 A2 |E2 D2 C2 |D2 c2 B2 | A4  |]
w: And all for the sake of their dear dar-ling son.